X:1
T:Ultimi miei sospiri
T:Ultimi miei sospiri
T:Girolamo Scotto
T:Source : Madrigali a tre voci---Venetia---G.Scotto---1541. Editor : André Vierendeels (12/06/16).
T:Notes : Original clefs : C3, C4, F4 Editorial accidentals above the staff Original note values have been halved Square brackets indicate ligatures "Tertii toni"
T:©
T:©
T:©
T:©
T:©
T:©
C:Girolamo Scotto
Z:©
%%score [ 1 2 3 ]
L:1/8
Q:1/4=105
M:2/2
K:F
V:1 treble-8 nm="Tenor 1" snm="T 1"
V:2 treble-8 nm="Tenor 2" snm="T 2"
V:3 bass nm="Bass" snm="B"
V:1
 d8 | c2 c2 _e2 e2 | d2 d4 f2 | f2 e2 e4 | d2 f2 c4 | d2 e2 f4 | e4 z4 | z2 g2 g2 f2 | e6 d2 | %9
w: Ul-|ti- mi miei so-|spi- ri, che|mi la- scia-|te fred- do'e|sen- za vi-|ta,|con- ta- te'i|miei mar-|
 c2 d3 cde | f2 d2 _e2 d2- | d2 c2 d4 | z2 e2 f2 f2 | c2 d2 _e2 d2 | f3 e d2 c2 | d2 c3 B A2- | %16
w: ti- * * * *||* * ri,|a chi mo-|rir mi ved- d'è|non _ _ m'a-|* i- * *|
 A2 G2 A4 | F8 | B2 B2 A2 d2- |"^-natural" dc/B/ c2 d4 | d4 z4 | z4 z2 d2 | d2 d2 f2 cd | %23
w: * * ta,|di-|te'o bel- ta'in- fi-|* * * ni- *|ta,|dal|tuo fe- del ne cac-|
 ef g2 e2 f2- | fe d4 c2 | d2 A2 A2 A2 | B6 B2 | A2 B2 A4 | z2 d2 d2 d2 | e2 e2 f2 f2 | e2 f4 ed | %31
w: cia em- pio mar- ti-||re, et se que-|sto l'è|gra- * to,|git- te- ne|rat- to'in ciel a|me- glior _ _|
 c4 d4 | c2 d4 _e2- | ed d4 c2 | d4 d4 | d2 d2 d4 | e4 f4- | f2 e2 d4 | _e4 d3 c | B2 A2 c3 d | %40
w: _ sta-|||to, ma|se pie- ta|li por-|* ge'il vo-|stro di- *||
 e4 f4 | e8 | d4 z2 A2 | A2 A2 c2 c2 | d6 G2 | A2 c3 B A2- | A2 G2 A2 A2 | B2 G2 A4 | G4 B4- | %49
w: ||re, tor-|na- te'in me ch'io-|non vor-|ro mo- * ri-|* * re, ch'io-|non vor- *|ro mo-|
 B2 A2 B4 | A8- | A8 | A8 |] %53
w: * * ri-|||re.|
V:2
 A8 | A2 A2 G2 G2- | G2 B2 A4 | z2 A2 G2 G2 | B2 A2 A3 G | AB c4 B2 | c2 c2 B2 A2 | G4 A3 B | %8
w: Ul-|ti- mi miei so-|* spi- ri,|che mi la-|scia- te fred- do'e|_ _ _ _|* e sen- za|vi- * *|
 c2 G2 G2 B2 | F4 B4 | A4 G2 B2 | B2 G2 A2 B2 | G2 G2 DEFG | A2 B2 GABc | d2 A2 B2 F2 | %15
w: ta, con- ta- te'i|miei mar-|ti- ri, a|chi mo- rir mi|ved- d'è non _ _ _|_ m'a- i- * * *|* * ta, e|
 F2 F2 E2 F2- | F2 ED E4 | D8 | D2 D2 F2 F2 | E4 D2 G2 | G2 G2 F4- | F2 E2 F4 | B4 A4 | %23
w: non m'a- * i-|* * * ta,|di-|te'o bel- ta'in- fi-|ni- ta, del|tuo fe- del|_ ne cac-|cia em-|
 G2 E2 G2 F2 | D2 F2 E4 | D2 F2 F2 F2 | G6 G2 | F2 G3 F/E/ F2 | G4 z2 G2 | G2 G2 A2 B2 | c2 B2 A4 | %31
w: pio mar- ti- r'em-|pio mar- ti-|re, et se que-|sto l'è|gra- * * * *|to, git-|te- ne rat- to'in|ciel a me-|
 G2 A2 B2 F2- | F2 B3 A G2 | F2 B4 AG | A4 B4 | F2 F2 B2 B2 | G2 G2 DEFG | AB c4 B2 | c2 G2 BAGF | %39
w: glior sta- * to,|_ sta- * *||to, ma|se pie- ta li|por- ge'il vo- * * *||stro di- * * * *|
 G2 F2 E2 A2- | A2 G2 F2 A2 | A2 A2 c2 c2 | F6 F2 | c3 B AG A2 | B3 A GF E2 | F2 A3 G F2- | %46
w: * * re, di-|* * * re,|tor- na- te'in me|ch'io- non|vor- * * * *|ro _ _ _ _|_ mor- * ri-|
 F2 ED E2 F2- | F2 E2 F4 | E3 F G2 D2- | DE F2 D2 G2 | F2 E2 F4- | F2 E2 F4 | E8 |] %53
w: * * * re, ch'io-|* * non|vor- * * ro|_ _ _ ri- *|||re.|
V:3
 D,8 | F,2 F,2 C,2 C,2 | G,,4 D,2 D,2 | A,,2 A,,2 C,2 C,2 | G,,2 D,2 F,4- | F,2 E,2 D,4 | C,4 D,4 | %7
w: Ul-|ti- mi miei so-|spi- ri, che|mi la- scia- te|fred- do sen-|* za vi-||
 E,4 D,4 | z2 C,2 C,2 B,,2 | A,,2 B,,2 G,,4 | D,4 z2 G,,2 |"^b""^b" E,2 E,2 D,2 B,,2 | C,4 B,,4 | %13
w: * ta,|con- ta te'i|miei mar- ti-|ri, a|chi mo- rir mi|ved- d'è|
 A,,2 G,,2 C,2 B,,2- | B,,2 F,,2 G,,2 A,,2 | B,,2 F,,2 A,,2 A,,2 | B,,4 A,,4 | B,,8 | %18
w: non m'a- i- ta,|_ mo- rir me|ved- d'e non m'a-|i- ta,|di|
 G,,2 G,,2 D,2 D,2 | A,,4 B,,2 G,,2 |"^#" G,,2 G,,2 B,,2 F,,G,, | A,,B,, C,2 A,,2 B,,2 | %22
w: te'o bel- ta'in- fi-|ni- ta, del|tuo fe- del _ _|_ _ _ ne cac-|
 G,,2 D,4 F,2 | C,4 C,2 D,2 | D,2 D,2 A,,4 | D,8 | z2 G,,2 G,,2 G,,2 | D,2 G,,2 D,4 | %28
w: cia em- pio|mar- ti- r'em-|pio mar- ti-|re,|et se que-|sto l'è gra-|
 G,,3 A,, B,,2 G,,2 | C,4 z4 | z2 D,2 D,2 D,2 | E,2 F,2 B,,4 | A,,2 G,,2 B,,2 C,2 |"^b" D,4 E,4 | %34
w: |to,|git- te- ne|rat- to'in ciel|a me- glior sta-||
 D,4 B,,4 | B,,2 B,,2 G,,4 | C,4 B,,2 B,,2 | F,2 C,2 G,4 | C,4 G,,4 | z2 A,,2 A,,2 A,,2 | %40
w: to, ma|se pie- ta|li por- g'il|vo- stro di-|* re,|tor- na- te'in|
 C,2 C,2 D,4 | A,,4 A,,2 A,,2 | B,,4 F,,4 | z2 F,,2 F,,2 F,,2 | B,,2 G,,2 B,,2 C,2 | %45
w: me ch'io non|vor- ro mo-|ri- re,|tor- na- te'in|mo- * * *|
 F,,3 G,, A,,4 | B,,4 A,,2 F,,2 | G,,4 F,,4 | C,4 G,,4- | G,,2 F,,2 G,,4 | A,,4 D,4- | %51
w: ri- * *||* re,|ch'io non|_ vor- ro|mo- ri-|
 D,2 C,2 D,4 | A,,8 |] %53
w: |re.|

